X: 543
T: Lord John Campbell's Reel
%R: reel
B: "Twenty Four Country Dances for the Year 1805", Tho. Preston, ed. p.232 #1
F: http://folkopedia.efdss.org/images/0/02/Preston_24_1805.PDF
Z: 2014 John Chambers <jc:trillian.mit.edu>
M: C|
L: 1/8
K: F
|:\
F2Ac f2fa | g>fga gG-GA |\
F/F/F Ac f2fa | g>fga f/f/f f2 :|
FGAB cAfc | dBcF EG-GA |\
F/F/F Ac dBGF | ECGA F/F/F F2 |
FGAB cAfc | dBcF EFGA |\
FfcA dBgf | ecga f/f/f f2 |]
%%begintext align
%% 1st Lady foot it to the 2d Gent.n and turn the
%% 3d 1st Gent.n do the same to the 2d and 3d Ladies
%% lead down the middle up again and cast off.
%%endtext

%%sep 1 1 500
%%sep 1 1 500
